public/images/telegram-icon.svg

<svg width="24" height="24" viewBox="0 0 24 24" fill="none" xmlns="http://www.w3.org/2000/svg">
<g id="Group 124">
<path id="Vector 39" d="M8.36111 14.125L8.71377 18.0298C8.78699 18.8405 9.74659 19.2287 10.363 18.6969L12.5833 16.7812L16.0356 19.484C16.6266 19.9467 17.4977 19.6176 17.6351 18.8797L20.1508 5.37466C20.2985 4.58196 19.4954 3.94944 18.7593 4.27872L3.9214 10.9167C3.07952 11.2934 3.15291 12.5119 4.03391 12.7848L8.36111 14.125ZM8.36111 14.125L14.6944 9.875" stroke="white" stroke-width="2" stroke-linecap="round" stroke-linejoin="round"/>
</g>
</svg>

<svg xmlns="http://www.w3.org/2000/svg" width="24" height="24" fill="none"><path stroke="#fff" stroke-linecap="round" stroke-linejoin="round" stroke-width="2" d="m8.361 14.125.353 3.905a1 1 0 0 0 1.649.667l2.22-1.916 3.453 2.703a1 1 0 0 0 1.6-.604L20.15 5.375a1 1 0 0 0-1.392-1.096L3.921 10.917c-.841.376-.768 1.595.113 1.868l4.327 1.34Zm0 0 6.333-4.25"/></svg>
